X:1
T:Title
%%score { 1 | 2 }
L:1/8
M:4/4
K:C
V:1 treble nm="Grand Piano"
V:2 bass 
V:1
 z4 z2 z[Q:1/4=82] [EG] | [EG]2 [FA][FB] [Ec]2 [G,EG][G,CE] | [B,DG]2 [B,D][DF] [CE]3 [EG] | %3
 [EG]2 [FA][FB] [Ec]2 [EG]E | D2 GB A [B,G]2 G | d2 c/B/A/G/ [Ec]2 [EG]G | d2 c/B/A/G/ [Ec]4 | %7
 c2 BA [EG]2 [CE][EG] | [B,DG]2 [B,D][DF] [DF] .[CE]3 | %9
[M:19/16] [Ec]-<[Ec][EG][Ec][Ge]/-[Ge]/-[Ge]-<[Ge][Ac]3/2A |[M:4/4] G c2 [DB] [Fd] .[Ec]3 |] %11
V:2
 z4 z2 z [C,C] | [C,C]2 [C,C][C,A,] [C,G,]2 C,C, | G,,2 [G,,G,][G,,G,] [C,G,]3 [C,C] | %3
 [C,C]2 [C,C][C,A,] [C,G,]2 [C,G,][C,G,C] | %4
 [D,G,B,]2 [D,G,B,][D,G,D] [D,^F,C] [G,,G,]2[K:treble] [G,B,D] | %5
 [G,B,F]2 [G,DF][G,B,F][K:bass] [C,G,]2 [C,C][E,CE] | [G,B,F]2 [G,DF][G,B,F][K:bass] [C,G,]4 | %7
 [F,A,F]2 [F,CF][F,CF] [C,C]2 [C,G,][C,C] | [G,,G,]2 [G,,G,][G,,G,] [C,G,] .[C,G,]3 | %9
[M:19/16] [C,G,]-<[C,G,][C,C][C,G,][C,C]/-[C,C]/-[C,C]-<[C,C][F,C]3/2[F,CF] | %10
[M:4/4] [G,CE] [G,CE]2 [G,,G,] [C,G,] .[C,G,]3 |] %11

